!!!COM: Anonymous
!!!CDT: [?]
!!!OTL@@POL: Wszystkaś piękna jest
!!!TXO: Polish
!!!ODT: 
!!!GTL: Hymnbook E
!!!ARL: Opactwo św. Wojciecha, Staniątki 
!!!voices:	3
**kern	**kern	**text	**kern	**text
*staff3	*staff2	*staff2	*staff1	*staff1
*I"Basso	*I"Canto II	*	*I"Canto I	*
=1-	=1-	=1-	=1-	=1-
*clefF4	*clefG2	*	*clefG2	*
*k[]	*k[]	*	*k[]	*
*M3/2	*M3/2	*	*M3/2	*
1c	1cc	Wszy-	1cc	Wszy-
2B\	2g/	-stkaś	2dd\	-stkaś
=2	=2	=2	=2	=2
2A\	2cc\	wszy-	2ee\	wszy-
4G\	2dd\	.	2ff\	.
4F\	.	.	.	.
2E\	2ee\	-tka	2gg\	-tka
=3	=3	=3	=3	=3
1F	1dd	pię-	1ff	pię-
2A\	2cc\	-kna	2ee\	-kna
=4	=4	=4	=4	=4
1.G	1.b	jest	1.dd	jest
=5	=5	=5	=5	=5
2C/	2.cc\	Ko-	2.ee\	Ko-
2.C/	.	.	.	.
.	4b\	.	4dd\	.
.	4a/	-chan-	4cc\	-chan-
4G\	4g/	-ko	4b\	-ko
=6	=6	=6	=6	=6
1D	2.g/	mo-	1a	mo-
.	4f#/	.	.	.
2GG/	2g/	-ja	2g/	-ja
=7	=7	=7	=7	=7
1C	1cc	Wszy-	1cc	Wszy-
2BB/	2g/	-stkaś	2dd\	-stkaś
=8	=8	=8	=8	=8
1AA	2cc\	wszy-	2ee\	wszy-
.	2dd\	.	2ff\	.
2E\	2ee\	-tka	2gg\	-tka
=9	=9	=9	=9	=9
2.F\	1dd	wdzię-	1ff	wdzię-
4G\	.	.	.	.
4A\	2cc\	-czna	2ee\	-czna
4F\	.	.	.	.
=10	=10	=10	=10	=10
1.G	1.b	jest	1.dd	jest
=11	=11	=11	=11	=11
2C/	2ee\	je-	2gg\	je-
2F\	4ff\	-dy-	4aa\	-dy-
.	4ee\	.	4gg\	.
2C/	4dd\	-na	4ff\	-na
.	4cc\	.	4ee\	.
=12	=12	=12	=12	=12
1G	1b	mo-	1dd	mo-
2C/	2cc\	-ja	2cc\	-ja
=13	=13	=13	=13	=13
!!linebreak:original
=	=	=	=	=
2.BB/	2.g/	P&oacute;j-	2.dd\	P&oacute;j-
4BB/	4g/	-dźże	4cc\	-dźże
2BB/	2g/	p&oacute;jdź	2dd\	p&oacute;jdź
=14	=14	=14	=14	=14
2.C/	2.cc\	z~Li-	2.ee\	z~Li-
4C/	4b\	-ba-	4dd\	-ba-
2C/	2cc\	-nu	2ee\	-nu
=15	=15	=15	=15	=15
1D	2.dd\	ze-	2.ff#\	ze-
.	4cc#i\	-trzyj	4ee\	-trzyj
2D\	2dd\	łeb	2ff#\	łeb
=16	=16	=16	=16	=16
1.C	2.ee\	sza-	2.gg\	sza-
.	4dd\	-ta-	4ff\	-ta-
.	2cc\	-nu	2ee\	-nu
=17	=17	=17	=17	=17
!!linebreak:original
2C/	2ee\	Je-	2gg\	Je-
2F\	2a/	-dy-	2cc\	-dy-
2D\	2g/	-na	2dd\	-na
=18	=18	=18	=18	=18
1C	1cc	mo-	4ee\	mo-
.	.	.	4ff\	.
.	.	.	4ee\	.
.	.	.	4dd\	.
2G\	2g/	-ja	2cc\	-ja
=19	=19	=19	=19	=19
2C/	2ee\	ko-	2gg\	ko-
2F\	4ff\	-chan-	4aa\	-chan-
.	4ee\	.	4gg\	.
2C/	4dd\	-ko	4ff\	-ko
.	4cc\	.	4ee\	.
=20	=20	=20	=20	=20
1GG	2.cc\	mo-	1dd	mo-
.	4b\	.	.	.
2C/	2cc\	-ja.	2cc\	-ja.
==:|!	==:|!	==:|!	==:|!	==:|!
*-	*-	*-	*-	*-
!!!GTL: Hymnbook E
!!!EFL: 25/117
!!!YEM: Creative Commons CC/BY/NC/SA 4.0
!!!ENC: Marcin Konik
!!!END: 
!!!EED: Marcin Konik
!!!EEV: 
!!!ONB: Translated from MusicXML and edited by Marcin Konik
!!!CharacterEncoding: utf-8
!!!RDF**kern: l=long note in original notation
!!!RDF**kern: i=editorial accidental
!!muse2ps: z14jc180F
